X: 57
T:Going Down South
% Nottingham Music Database
S:Trad, via EF
M:4/4
L:1/4
K:G
Bc |"G"dd -"C"de|"G"d4|"G"BB -"C"Bc|"G"B4|"D7"A2 ^G2|"D7"A2 B2|"G"GG -"C"GE|\
"D7"D2 Bc|
"G"dd -"C"de|"G"d4|"G"B3/2^A/2 Bc|"G"Bc de|"D"f2 d2|"A7"e2 ^c2|"D"de fe|
"D7"dc Bc|"G"dd -"C"de|"G"d4|"G"BB -"C"Bc|"G"B4|"D7"A2 ^G2|"D7"A2 B2|\
"G"GG -"C"GE|
"D7"D2 Bc|"G"dd2e|"G7"d2 G2|"C"dc -cG|"Cm"g4|"G"Bd -"C"de|"A7"B2 "D7"A2|"G"G4-\
|"G"G2 ||<end>
<start>
